share/icons/Flat-Remix-Blue-Dark/mimetypes/scalable/application-x-scribus.svg

<svg xmlns="http://www.w3.org/2000/svg" xmlns:xlink="http://www.w3.org/1999/xlink" width="36pt" height="36pt" version="1.1" viewBox="0 0 36 36"> <defs> <clipPath id="clip1"> <path d="M 20 2 L 31 2 L 31 13 L 20 13 Z M 20 2"/> </clipPath> <clipPath id="clip2"> <path d="M 20.515625 2.625 L 30.328125 12.4375 L 22.023438 12.4375 C 21.292969 12.4375 20.515625 11.660156 20.515625 10.929688 Z M 20.515625 2.625"/> </clipPath> <image id="image6" width="36" height="36" xlink:href="data:image/png;base64,iVBORw0KGgoAAAANSUhEUgAAACQAAAAkCAYAAADhAJiYAAAABmJLR0QA/wD/AP+gvaeTAAAAmklEQVRYhe3T0QqCQBBG4aOtYEoUvf9Lildltl00C4tkbBeTIP+BAUEYP1YW1Pcqh53B9kbgaVPcwQF0tAmGSrMZ6AKcDQXw+AUVHEAtcAUaewYYgYmC3+cBCkAPnDJQMcoDVNnebgEqQnmAclTz4d0I3P4JStc9AjXvk4qLWQV53LLeEOl05gw4A3dgcPiuUkoppZRSSqk99gLWvSJpuDnlsAAAAABJRU5ErkJggg=="/> </defs> <g> <path style="fill:rgb(83.137%,9.803%,9.803%)" d="M 7.347656 3.152344 C 6.675781 3.152344 6.042969 3.785156 6.042969 4.457031 L 6.042969 31.847656 C 6.042969 32.480469 6.714844 33.152344 7.347656 33.152344 L 28.21875 33.152344 C 28.851562 33.152344 29.523438 32.480469 29.523438 31.847656 L 29.523438 11.632812 L 21.042969 3.152344 Z M 7.347656 3.152344"/> <g clip-path="url(#clip1)"> <g clip-path="url(#clip2)"> <use xlink:href="#image6"/> </g> </g> <path style="fill:rgb(88.235%,36.862%,36.862%)" d="M 21.042969 3.152344 L 29.523438 11.632812 L 22.347656 11.632812 C 21.714844 11.632812 21.042969 10.960938 21.042969 10.328125 Z M 21.042969 3.152344"/> <path style="fill-rule:evenodd;fill:rgb(100.000%,100.000%,100.000%)" d="M 21.066406 13.191406 C 20.652344 13.144531 20.320312 13.144531 20.015625 13.203125 C 19.710938 13.261719 19.429688 13.40625 19.261719 13.589844 C 19.09375 13.773438 19.039062 13.953125 19.015625 14.039062 C 18.421875 15.199219 17.726562 16.351562 17.085938 17.339844 C 16.296875 18.507812 15.375 19.871094 14.894531 20.96875 C 14.601562 21.636719 14.289062 22.445312 13.976562 23.289062 C 13.332031 25.054688 12.753906 26.820312 12.1875 28.59375 C 13.105469 28.65625 13.105469 28.652344 13.816406 28.65625 C 14.339844 27.695312 15.207031 26.785156 15.929688 26.117188 C 17.1875 24.972656 18.996094 23.800781 20.726562 23.539062 L 21.308594 23.453125 C 21.339844 21.644531 21.503906 19.6875 22.398438 18.101562 C 22.765625 17.441406 23.277344 16.917969 23.75 16.320312 C 23.871094 16.222656 23.777344 16.105469 23.789062 16 C 23.433594 14.242188 22.238281 13.371094 21.101562 13.195312 C 21.089844 13.195312 21.078125 13.191406 21.066406 13.191406 Z M 21.066406 13.191406"/> </g> </svg>

<svg width="36pt" height="36pt" version="1.1" viewBox="0 0 36 36" xmlns="http://www.w3.org/2000/svg"><defs><filter id="a" x="-.192" y="-.192" width="1.384" height="1.384" color-interpolation-filters="sRGB"><feGaussianBlur stdDeviation="0.67843748"/></filter></defs><path d="m7.3477 3.9022c-0.67188 0-1.3047 0.63281-1.3047 1.3047v27.391c0 0.63281 0.67188 1.3047 1.3047 1.3047h20.871c0.63281 0 1.3047-0.67188 1.3047-1.3047v-20.215l-8.4805-8.4805z" opacity=".3"/><path d="m7.3477 3.1523c-0.67188 0-1.3047 0.63281-1.3047 1.3047v27.391c0 0.63281 0.67188 1.3047 1.3047 1.3047h20.871c0.63281 0 1.3047-0.67188 1.3047-1.3047v-20.215l-8.4805-8.4805z" fill="#d31818"/><path d="m20.668 3.5272 8.4805 8.4805h-7.1758c-0.63281 0-1.3047-0.67187-1.3047-1.3047z" filter="url(#a)" opacity=".2"/><path d="m21.043 3.1523 8.4805 8.4805h-7.1758c-0.63281 0-1.3047-0.67187-1.3047-1.3047z" fill="#e05d5d"/><path d="m21.066 13.191c-0.41406-0.046875-0.74609-0.046875-1.0508 0.011719s-0.58594 0.20312-0.75391 0.38672-0.22266 0.36328-0.24609 0.44922c-0.59375 1.1602-1.2891 2.3125-1.9297 3.3008-0.78906 1.168-1.7109 2.5312-2.1914 3.6289-0.29297 0.66797-0.60547 1.4766-0.91797 2.3203-0.64453 1.7656-1.2227 3.5312-1.7891 5.3047 0.91797 0.0625 0.91797 0.058594 1.6289 0.0625 0.52344-0.96094 1.3906-1.8711 2.1133-2.5391 1.2578-1.1445 3.0664-2.3164 4.7969-2.5781l0.58203-0.085937c0.03125-1.8086 0.19531-3.7656 1.0898-5.3516 0.36719-0.66016 0.87891-1.1836 1.3516-1.7812 0.12109-0.097656 0.027344-0.21484 0.039062-0.32031-0.35547-1.7578-1.5508-2.6289-2.6875-2.8047-0.011718 0-0.023437-0.003906-0.035156-0.003906z" fill="#fff" fill-rule="evenodd"/></svg>
